X:1
T:Joy to Great Caesar. SenH.123
T:Joy to Great Caesar. SenH.123
T:in Hand C
C:in Hand C
L:1/8
Q:1/4=100
M:3/4
K:C
V:1 treble 
V:1
 a2 a3 b | ^g2 g2 g2 | a2 a3 b | b2 b2 bb | c'2 c'3 d' | b2 b2 c'b | a2 a3 b | ^g2 g2 g2 | %8
 a2 a3 b | ^g2 g2 g2 | a2 a3 a | b2 b2 bb | c'2 c'3 d' | b2 b2 c'b | a2 a2 ^g2 | a2 a4 || %16
 a2 A2 a2 | ^g2 e2 g2 | a2 A2 aa | b2 B2 b2 | c'2 cc'ba | b2 Bba^g | a2 Aa^g^f | ^g2 e^fge | %24
 a2 e2 ca | ^g2 e2 Bg | a2 e2 ca | b2 g2 db | c'2 g2 ec' | d'2 b2 gd' | c'>b b3 a | a4 || a2 | %33
 a>^ga>ba>b | ^g>^fg>ag>b | a>^ga>ba>c' | b>ab>c'b>d' | c'>bc'>d'c'>d' | b>ab>c'b>c' | a>^ga>ba>b | %40
 ^g>^fg>ag>b | a>^ga>ba>c' | b>ab>c'b>d' | c'>bc'>d'c'>e' | d'>c'd'>e'd'>e' | c'>b b3 a | a4 || %47
 b2 | c'2 c'3 d' | b2 b2 b2 | c'2 c'3 c' | d'2 d'3 d' | e'2 e'3 f' | d'2 d'3 e' | c'2 c'3 d' | %55
 b2 b3 b | c'2 c'3 d' | b2 b3 b | c'2 c'3 c' | d'2 d'3 d' | e'2 e'3 f' | d'2 d'3 e' | c'>b b3 a | %63
 a4 |] %64

